X:1
T:Title
%%score { 1 | 2 }
L:1/8
M:4/4
K:D
V:1 treble nm="Grand Piano"
V:2 bass 
V:1
 z4 z2[Q:1/4=90] [DF][EG] | [FA][FA][=F^G][^FA] [=GB][FA][A,DF][DFA] | %2
 [CEA][CEG] [CEG]>[=C^DF] [^CEG]2 [CE][=DF] | [EG][^DF][EG][CGB] [CFA][CEG] [A,CE]>[A,C=F] | %4
 [A,DF]6 [A,DF][A,EG] | [FA][FA][=F^G][^FA] [=GB][FA][A,DF][DFA] | %6
 [CEA][CEG] [CEG]>[=C^DF] [^CEG]2 [CE][=DF] | [EG][^DF][EG][CGB] [CEA][CE] [CF]>[CE] |[M:3/4] D6 | %9
[M:5/16] A3/2G |[M:4/4] F A3 F A3 | AA^GA BA=GF | [CE] [CG]3 [CE] [CG]3 | %13
[M:19/16] [CA][CG][CF][CE]F/-F/-F-<FA3/2G |[M:4/4] F A3 F A3 | %15
[M:17/16] [FA][Fd][Gc][Ad]ed3/2cB[Q:1/4=84][Q:1/4=79][Q:1/4=73] | %16
[M:4/4] [GB][FA][DF][DA] [CA][CG] C>E |[M:3/4] D6 |] %18
V:2
 z4 z2 [D,A,][D,A,] | [D,D][D,D][D,D][D,D] [D,D][D,D]D,D, | A,,A,, A,,>G,, A,,2 [A,,A,][A,,A,] | %3
 [A,,A,][A,,A,][A,,A,]A,, A,,A,, A,,>A,, | D,6 D,D, | [D,D][D,D][D,D][D,D] [D,D][D,D]D,D, | %6
 A,,A,, A,,>A,, A,,2 [A,,A,][A,,A,] | [A,,A,][A,,A,][A,,A,]A,, A,,[A,,A,] [A,,A,]>[A,,G,] | %8
[M:3/4] [D,F,A,]6 |[M:5/16] [D,F,D]3/2[D,B,D] |[M:4/4] [D,A,D] [D,F,D]3 [D,A,D] [D,F,D]3 | %11
 [D,F,D][D,F,D][D,=F,D][D,^F,D] [D,G,D][D,F,D][D,B,D][D,A,D] | [A,,A,] [A,,A,]3 [A,,A,] [A,,A,]3 | %13
[M:19/16] [A,,A,][A,,A,][A,,A,][A,,A,][D,A,D]/-[D,A,D]/-[D,A,D]-<[D,A,D][D,F,D]3/2[D,B,D] | %14
[M:4/4] [D,A,D] [D,F,D]3 [D,A,D] [D,F,D]3 | %15
[M:17/16] [D,D][D,A,][E,A,][F,A,][K:treble][G,B,G][G,B,G]3/2[G,DG][G,DG] | %16
[M:4/4][K:bass] [F,D][D,D][D,A,][D,F,] [A,,E,][A,,A,] [A,,G,A,]>[A,,G,A,] |[M:3/4] [D,F,A,]6 |] %18

